src/activities/smallnumbers/resource/dice2.svg

<?xml version="1.0" encoding="UTF-8" standalone="no"?>
<!-- Created with Inkscape (http://www.inkscape.org/) -->

<svg
   xmlns:dc="http://purl.org/dc/elements/1.1/"
   xmlns:cc="http://creativecommons.org/ns#"
   xmlns:rdf="http://www.w3.org/1999/02/22-rdf-syntax-ns#"
   xmlns:svg="http://www.w3.org/2000/svg"
   xmlns="http://www.w3.org/2000/svg"
   xmlns:sodipodi="http://sodipodi.sourceforge.net/DTD/sodipodi-0.dtd"
   xmlns:inkscape="http://www.inkscape.org/namespaces/inkscape"
   width="97.365761"
   height="98.645958"
   id="svg5070"
   sodipodi:version="0.32"
   inkscape:version="0.91 r13725"
   sodipodi:docname="dice2.svg"
   inkscape:export-filename="/home/franck/Gcompris/gartoon/level2.png"
   inkscape:export-xdpi="8.5762272"
   inkscape:export-ydpi="8.5762272"
   inkscape:output_extension="org.inkscape.output.svg.inkscape"
   version="1.0">
  <defs
     id="defs3" />
  <sodipodi:namedview
     inkscape:document-units="mm"
     id="base"
     pagecolor="#ffffff"
     bordercolor="#666666"
     borderopacity="1.0"
     inkscape:pageopacity="0.0"
     inkscape:pageshadow="2"
     inkscape:zoom="4.0993128"
     inkscape:cx="3.2049798"
     inkscape:cy="48.780924"
     inkscape:current-layer="g16578"
     inkscape:window-width="1880"
     inkscape:window-height="1060"
     inkscape:window-x="-2"
     inkscape:window-y="-3"
     showgrid="false"
     units="mm"
     fit-margin-top="0"
     fit-margin-left="0"
     fit-margin-right="0"
     fit-margin-bottom="0"
     inkscape:window-maximized="1" />
  <metadata
     id="metadata4">
    <rdf:RDF>
      <cc:Work
         rdf:about="">
        <dc:format>image/svg+xml</dc:format>
        <dc:type
           rdf:resource="http://purl.org/dc/dcmitype/StillImage" />
        <dc:title></dc:title>
        <dc:date>2015</dc:date>
        <dc:creator>
          <cc:Agent>
            <dc:title>Timothée Giet</dc:title>
          </cc:Agent>
        </dc:creator>
        <cc:license
           rdf:resource="http://creativecommons.org/licenses/by-sa/4.0/" />
      </cc:Work>
      <cc:License
         rdf:about="http://creativecommons.org/licenses/by-sa/4.0/">
        <cc:permits
           rdf:resource="http://creativecommons.org/ns#Reproduction" />
        <cc:permits
           rdf:resource="http://creativecommons.org/ns#Distribution" />
        <cc:requires
           rdf:resource="http://creativecommons.org/ns#Notice" />
        <cc:requires
           rdf:resource="http://creativecommons.org/ns#Attribution" />
        <cc:permits
           rdf:resource="http://creativecommons.org/ns#DerivativeWorks" />
        <cc:requires
           rdf:resource="http://creativecommons.org/ns#ShareAlike" />
      </cc:License>
    </rdf:RDF>
  </metadata>
  <g
     inkscape:label="Layer 1"
     inkscape:groupmode="layer"
     id="layer1"
     transform="translate(-21.283764,-14.131128)"
     style="display:inline">
    <g
       id="g16578"
       transform="matrix(0.1430604,0,0,0.1477225,16.150187,-22.936007)">
      <path
         style="fill:#991919;fill-opacity:1;fill-rule:evenodd;stroke:none;stroke-width:0.14504871pt;stroke-linecap:butt;stroke-linejoin:miter;stroke-opacity:1"
         d="m 79.647352,430.73039 c 0,0 81.760718,-99.79145 158.394558,-144.96256 47.56073,-28.03424 111.49862,-39.75315 167.22437,-31.75371 100.51794,14.42937 242.38987,69.23995 242.38987,69.23995 39.87211,11.04476 73.05019,34.12556 67.57733,90.61724 -9.37695,96.7878 -28.77554,168.66416 -56.61455,257.89256 -11.859,38.00994 -27.63813,78.67316 -39.1144,107.00455 -13.39648,33.07181 -30.89121,62.43547 -41.87397,85.89574 -16.86774,36.03101 -64.41676,53.88401 -106.33503,53.41658 -61.9056,-0.69028 -181.4884,-32.02261 -275.98171,-77.60849 -42.5847,-20.54391 -72.3712,-45.96255 -84.83924,-79.5891 C 82.150058,684.49142 36.580501,620.32528 36.517716,536.70813 36.483416,491.01898 54.491558,463.86469 79.647352,430.73039 Z"
         id="rect5098"
         sodipodi:nodetypes="csscssssssssc"
         inkscape:connector-curvature="0" />
      <path
         style="fill:#e82727;fill-opacity:1;fill-rule:evenodd;stroke:none"
         d="m 387.49159,281.81391 c 101.9045,10.95746 157.52095,38.13849 242.58126,65.99635 44.23686,14.48789 81.7102,44.97086 37.71221,118.00209 L 545.8734,668.17047 C 519.30056,712.6479 444.26559,721.4449 396.8922,708.67998 L 136.26284,613.08733 C 88.889442,600.32241 41.254981,537.23095 69.204358,492.90357 108.65516,430.33507 173.78193,367.08661 236.09107,313.17353 273.97821,280.39166 339.15976,276.61694 387.49159,281.81391 Z"
         id="rect5076"
         sodipodi:nodetypes="csscccsss"
         inkscape:connector-curvature="0" />
      <path
         style="fill:#c21919;fill-opacity:1;fill-rule:evenodd;stroke:none"
         d="M 409.29786,900.11597 C 323.2898,884.32616 266.07247,853.22359 198.80745,823.91237 161.69931,807.7422 131.04514,769.57584 122.59157,739.53793 L 90.428323,647.80748 c -15.46502,-44.10666 10.838567,-42.86622 57.528187,-24.28023 l 255.49631,92.18929 c 39.81786,11.88637 73.9555,39.68724 74.00099,86.75625 0.021,21.57145 -0.33713,37.35975 -3.67006,66.58177 -2.20657,19.34607 -22.12208,38.8389 -64.48589,31.06141 z"
         id="path6555"
         sodipodi:nodetypes="cscsccsss"
         inkscape:connector-curvature="0" />
      <path
         style="fill:#c21919;fill-opacity:1;fill-rule:evenodd;stroke:none"
         d="m 602.65834,768.2247 c -11.75442,23.69525 -24.29669,59.8034 -40.42741,88.59259 -22.68061,40.47907 -68.43152,47.51544 -66.27886,19.38682 l 5.1473,-67.25874 c 3.59176,-46.93306 29.52855,-99.21549 44.45991,-123.1233 40.59686,-65.00283 90.44246,-137.32244 127.10491,-194.67996 14.43159,-22.57776 17.50806,3.63407 12.39763,21.33542 l -44.76574,155.05804 c -8.46437,29.31863 -27.605,80.46452 -37.63774,100.68913 z"
         id="path7283"
         sodipodi:nodetypes="sssssssss"
         inkscape:connector-curvature="0" />
      <path
         style="fill:#ecc9c0;fill-opacity:1;fill-rule:evenodd;stroke:none"
         d="M 17.460938 58.478516 C 15.802475 58.435269 14.44516 59.285496 14.519531 60.916016 A 4.7374403 2.791525 33.313044 0 0 14.513672 60.976562 A 4.7374403 2.791525 33.313044 0 0 18.332031 65.533203 A 4.7374403 2.791525 33.313044 0 0 22.925781 64.740234 L 22.931641 64.347656 C 22.943177 64.222449 22.944463 64.092107 22.9375 63.957031 L 22.941406 63.623047 A 4.7374403 2.791525 33.313044 0 0 22.826172 63.230469 C 22.440655 61.647747 21.157958 59.788473 19.763672 59.080078 C 19.004812 58.694525 18.202667 58.497857 17.460938 58.478516 z M 78.724609 65.941406 C 78.646065 65.948006 78.562808 65.96856 78.474609 66.003906 A 1.3153544 3.6045751 18.429796 0 0 78.458984 66.005859 A 1.3153544 3.6045751 18.429796 0 0 76.248047 69.544922 A 1.3153544 3.6045751 18.429796 0 0 76.605469 72.861328 L 76.798828 72.804688 C 76.855423 72.794676 76.91374 72.777434 76.974609 72.753906 L 77.142578 72.705078 A 1.3153544 3.6045751 18.429796 0 0 77.330078 72.560547 C 78.09299 72.034368 78.993689 70.794175 79.341797 69.644531 C 79.909949 67.768182 79.66714 65.862212 78.724609 65.941406 z M 51.03125 71.152344 C 49.371435 71.109062 48.013068 71.95867 48.089844 73.591797 A 4.7374403 2.791525 33.313044 0 0 48.083984 73.650391 A 4.7374403 2.791525 33.313044 0 0 51.900391 78.205078 A 4.7374403 2.791525 33.313044 0 0 56.496094 77.414062 L 56.501953 77.015625 C 56.513086 76.892171 56.51462 76.763877 56.507812 76.630859 L 56.511719 76.296875 A 4.7374403 2.791525 33.313044 0 0 56.396484 75.902344 C 56.010732 74.31979 54.726089 72.462185 53.332031 71.753906 C 52.573171 71.368353 51.772979 71.171685 51.03125 71.152344 z M 22.976562 76.707031 C 21.316748 76.66375 19.958381 77.513357 20.035156 79.146484 A 4.7374403 2.791525 33.313044 0 0 20.029297 79.205078 A 4.7374403 2.791525 33.313044 0 0 23.845703 83.759766 A 4.7374403 2.791525 33.313044 0 0 28.441406 82.96875 L 28.447266 82.570312 C 28.458182 82.449262 28.459469 82.323624 28.453125 82.193359 L 28.457031 81.851562 A 4.7374403 2.791525 33.313044 0 0 28.339844 81.451172 C 27.952331 79.869882 26.669685 78.016001 25.277344 77.308594 C 24.518483 76.92304 23.718292 76.726373 22.976562 76.707031 z M 52.705078 87.425781 C 51.045263 87.3825 49.684943 88.232107 49.761719 89.865234 A 4.7374403 2.791525 33.313044 0 0 49.755859 89.923828 A 4.7374403 2.791525 33.313044 0 0 53.574219 94.480469 A 4.7374403 2.791525 33.313044 0 0 58.169922 93.6875 L 58.175781 93.277344 C 58.185359 93.164745 58.184964 93.048267 58.179688 92.927734 L 58.185547 92.570312 A 4.7374403 2.791525 33.313044 0 0 58.070312 92.177734 C 57.685177 90.59474 56.400517 88.735927 55.005859 88.027344 C 54.246999 87.64179 53.446807 87.445123 52.705078 87.425781 z "
         transform="matrix(6.9900546,0,0,6.7694495,35.883983,250.9241)"
         id="path1340" />
      <path
         style="fill:#f2dbd4;fill-opacity:1;fill-rule:evenodd;stroke:none"
         d="M 75.996094 20.064453 C 72.42833 20.027045 69.715207 22.602297 71.441406 25.357422 A 6.2182735 3.6703414 10.030607 0 0 71.478516 25.435547 A 6.2182735 3.6703414 10.030607 0 0 78.810547 28.619141 A 6.2182735 3.6703414 10.030607 0 0 83.355469 24.953125 L 83.083984 24.464844 C 83.015563 24.319368 82.935682 24.173549 82.84375 24.027344 L 82.611328 23.609375 A 6.2182735 3.6703414 10.030607 0 0 82.21875 23.210938 C 80.713568 21.546601 78.023657 20.085713 75.996094 20.064453 z M 19.884766 35.494141 C 16.317001 35.456734 13.605832 38.031985 15.332031 40.787109 A 6.2182735 3.6703414 10.030607 0 0 15.369141 40.865234 A 6.2182735 3.6703414 10.030607 0 0 22.699219 44.048828 A 6.2182735 3.6703414 10.030607 0 0 27.246094 40.382812 L 26.974609 39.894531 C 26.907372 39.751572 26.828242 39.608519 26.738281 39.464844 L 26.501953 39.039062 A 6.2182735 3.6703414 10.030607 0 0 26.103516 38.636719 C 24.597383 36.974591 21.910169 35.515378 19.884766 35.494141 z "
         transform="matrix(6.9900546,0,0,6.7694495,35.883983,250.9241)"
         id="path8733" />
    </g>
  </g>
</svg>

<!--Created with Inkscape (http://www.inkscape.org/)--><svg xmlns:dc="http://purl.org/dc/elements/1.1/" xmlns:cc="http://creativecommons.org/ns#" xmlns:rdf="http://www.w3.org/1999/02/22-rdf-syntax-ns#" xmlns="http://www.w3.org/2000/svg" xmlns:sodipodi="http://sodipodi.sourceforge.net/DTD/sodipodi-0.dtd" xmlns:inkscape="http://www.inkscape.org/namespaces/inkscape" width="97.365761" height="98.645958" sodipodi:version="0.32" inkscape:version="0.91 r13725" sodipodi:docname="dice2.svg" inkscape:export-filename="/home/franck/Gcompris/gartoon/level2.png" inkscape:export-xdpi="8.5762272" inkscape:export-ydpi="8.5762272" inkscape:output_extension="org.inkscape.output.svg.inkscape" version="1.0"><sodipodi:namedview inkscape:document-units="mm" pagecolor="#ffffff" bordercolor="#666666" borderopacity="1.0" inkscape:pageopacity="0.0" inkscape:pageshadow="2" inkscape:zoom="4.0993128" inkscape:cx="3.2049798" inkscape:cy="48.780924" inkscape:current-layer="g16578" inkscape:window-width="1880" inkscape:window-height="1060" inkscape:window-x="-2" inkscape:window-y="-3" showgrid="false" units="mm" fit-margin-top="0" fit-margin-left="0" fit-margin-right="0" fit-margin-bottom="0" inkscape:window-maximized="1"/><metadata><rdf:RDF><cc:Work><dc:format>image/svg+xml</dc:format><dc:type rdf:resource="http://purl.org/dc/dcmitype/StillImage"/><dc:title/><dc:date>2015</dc:date><dc:creator><cc:Agent><dc:title>Timothée Giet</dc:title></cc:Agent></dc:creator><cc:license rdf:resource="http://creativecommons.org/licenses/by-sa/4.0/"/></cc:Work><cc:License rdf:about="http://creativecommons.org/licenses/by-sa/4.0/"><cc:permits rdf:resource="http://creativecommons.org/ns#Reproduction"/><cc:permits rdf:resource="http://creativecommons.org/ns#Distribution"/><cc:requires rdf:resource="http://creativecommons.org/ns#Notice"/><cc:requires rdf:resource="http://creativecommons.org/ns#Attribution"/><cc:permits rdf:resource="http://creativecommons.org/ns#DerivativeWorks"/><cc:requires rdf:resource="http://creativecommons.org/ns#ShareAlike"/></cc:License></rdf:RDF></metadata><g inkscape:label="Layer 1" inkscape:groupmode="layer" style="display:inline"><path style="fill:#991919;fill-opacity:1;fill-rule:evenodd;stroke:none;stroke-width:.14504871pt;stroke-linecap:butt;stroke-linejoin:miter;stroke-opacity:1" d="M79.647 430.73s81.761-99.791 158.395-144.962c47.56-28.034 111.499-39.753 167.224-31.754 100.518 14.43 242.39 69.24 242.39 69.24 39.872 11.045 73.05 34.126 67.577 90.617-9.376 96.788-28.775 168.664-56.614 257.893-11.86 38.01-27.638 78.673-39.114 107.004-13.397 33.072-30.892 62.436-41.874 85.896-16.868 36.031-64.417 53.884-106.335 53.417-61.906-.69-181.489-32.023-275.982-77.609-42.585-20.544-72.371-45.962-84.84-79.589-28.324-76.392-73.893-140.558-73.956-224.175-.035-45.689 17.974-72.843 43.13-105.978z" sodipodi:nodetypes="csscssssssssc" inkscape:connector-curvature="0" transform="matrix(.14306 0 0 .14772 -5.134 -37.067)"/><path style="fill:#e82727;fill-opacity:1;fill-rule:evenodd;stroke:none" d="M387.492 281.814c101.904 10.957 157.52 38.138 242.58 65.996 44.238 14.488 81.711 44.971 37.713 118.002L545.873 668.17c-26.572 44.478-101.607 53.275-148.98 40.51l-260.63-95.593c-47.374-12.765-95.008-75.856-67.059-120.183 39.451-62.569 104.578-125.817 166.887-179.73 37.887-32.782 103.069-36.557 151.4-31.36z" sodipodi:nodetypes="csscccsss" inkscape:connector-curvature="0" transform="matrix(.14306 0 0 .14772 -5.134 -37.067)"/><path style="fill:#c21919;fill-opacity:1;fill-rule:evenodd;stroke:none" d="M409.298 900.116c-86.008-15.79-143.226-46.892-210.49-76.204-37.109-16.17-67.763-54.336-76.216-84.374l-32.164-91.73c-15.465-44.107 10.839-42.867 57.529-24.28l255.496 92.189c39.818 11.886 73.955 39.687 74 86.756.022 21.571-.336 37.36-3.67 66.582-2.206 19.346-22.121 38.838-64.485 31.061z" sodipodi:nodetypes="cscsccsss" inkscape:connector-curvature="0" transform="matrix(.14306 0 0 .14772 -5.134 -37.067)"/><path style="fill:#c21919;fill-opacity:1;fill-rule:evenodd;stroke:none" d="M602.658 768.225c-11.754 23.695-24.296 59.803-40.427 88.592-22.68 40.48-68.432 47.516-66.279 19.387l5.147-67.259c3.592-46.933 29.529-99.215 44.46-123.123 40.597-65.003 90.443-137.322 127.105-194.68 14.432-22.578 17.508 3.634 12.398 21.336l-44.766 155.058c-8.464 29.318-27.605 80.464-37.638 100.689z" sodipodi:nodetypes="sssssssss" inkscape:connector-curvature="0" transform="matrix(.14306 0 0 .14772 -5.134 -37.067)"/><path style="fill:#ecc9c0;fill-opacity:1;fill-rule:evenodd;stroke:none" d="M17.46 58.479c-1.658-.044-3.015.806-2.94 2.437a4.737 2.792 33.313 0 0-.006.06 4.737 2.792 33.313 0 0 3.818 4.557 4.737 2.792 33.313 0 0 4.594-.793l.006-.392c.011-.126.012-.256.006-.391l.003-.334a4.737 2.792 33.313 0 0-.115-.393c-.385-1.582-1.668-3.442-3.062-4.15a5.454 5.454 0 0 0-2.303-.601zm61.265 7.462a.87.87 0 0 0-.25.063 1.315 3.605 18.43 0 0-.016.002 1.315 3.605 18.43 0 0-2.211 3.539 1.315 3.605 18.43 0 0 .357 3.316l.194-.056a.947.947 0 0 0 .176-.051l.168-.049a1.315 3.605 18.43 0 0 .187-.144c.763-.527 1.664-1.767 2.012-2.916.568-1.877.325-3.783-.617-3.704zM51.03 71.152c-1.66-.043-3.018.807-2.941 2.44a4.737 2.792 33.313 0 0-.006.058 4.737 2.792 33.313 0 0 3.816 4.555 4.737 2.792 33.313 0 0 4.596-.79l.006-.4c.011-.123.013-.251.006-.384l.004-.334a4.737 2.792 33.313 0 0-.116-.395c-.385-1.582-1.67-3.44-3.064-4.148a5.446 5.446 0 0 0-2.3-.602zm-28.054 5.555c-1.66-.043-3.019.806-2.942 2.44a4.737 2.792 33.313 0 0-.006.058 4.737 2.792 33.313 0 0 3.817 4.555 4.737 2.792 33.313 0 0 4.595-.791l.006-.399c.011-.12.012-.246.006-.377l.004-.341a4.737 2.792 33.313 0 0-.117-.4c-.388-1.582-1.67-3.436-3.063-4.143a5.446 5.446 0 0 0-2.3-.602zm29.728 10.719c-1.66-.044-3.02.806-2.943 2.44a4.737 2.792 33.313 0 0-.006.058 4.737 2.792 33.313 0 0 3.818 4.556 4.737 2.792 33.313 0 0 4.596-.793l.006-.41c.01-.112.009-.229.004-.35l.006-.357a4.737 2.792 33.313 0 0-.116-.392c-.385-1.583-1.67-3.442-3.064-4.15a5.446 5.446 0 0 0-2.3-.602z"/><path style="fill:#f2dbd4;fill-opacity:1;fill-rule:evenodd;stroke:none" d="M75.996 20.064c-3.568-.037-6.28 2.538-4.555 5.293a6.218 3.67 10.03 0 0 .038.079 6.218 3.67 10.03 0 0 7.332 3.183 6.218 3.67 10.03 0 0 4.544-3.666l-.271-.488a4.102 4.102 0 0 0-.24-.438l-.233-.418a6.218 3.67 10.03 0 0-.392-.398c-1.505-1.664-4.195-3.125-6.223-3.147zm-56.111 15.43c-3.568-.037-6.28 2.538-4.553 5.293a6.218 3.67 10.03 0 0 .037.078 6.218 3.67 10.03 0 0 7.33 3.184 6.218 3.67 10.03 0 0 4.547-3.666l-.271-.488a4.1 4.1 0 0 0-.237-.43l-.236-.426a6.218 3.67 10.03 0 0-.398-.402c-1.507-1.662-4.194-3.122-6.22-3.143z"/></g></svg>
